svgs/solid/person-seat.svg

<svg xmlns="http://www.w3.org/2000/svg" viewBox="0 0 384 512"><!-- Font Awesome Pro 6.0.0-alpha2 by @fontawesome - https://fontawesome.com License - https://fontawesome.com/license (Commercial License) --><path d="M144.004 96C170.514 96 192.004 74.508 192.004 48S170.514 0 144.004 0S96.004 21.492 96.004 48S117.494 96 144.004 96ZM352 416H332.25L319.75 316.031C317.75 300.031 304.141 288 288 288H192V256H256C273.674 256 288 241.672 288 224C288 206.326 273.674 192 256 192H192V176C192 149.5 170.516 128 144 128S96 149.5 96 176V304C96 330.5 117.484 352 144 352C145.826 352 147.559 351.66 149.332 351.461C150.258 351.541 151.055 352 152 352H259.75L272.25 451.969C274.25 467.969 287.859 480 304 480H352C369.672 480 384 465.688 384 448S369.672 416 352 416ZM192 384H128C92.703 384 64 355.281 64 320V160C64 142.312 49.672 128 32 128S0 142.312 0 160V320C0 390.594 57.422 448 128 448H192C209.672 448 224 433.688 224 416S209.672 384 192 384Z"/></svg>

<svg xmlns="http://www.w3.org/2000/svg" viewBox="0 0 384 512"><!--! Font Awesome Pro 6.3.0 by @fontawesome - https://fontawesome.com License - https://fontawesome.com/license (Commercial License) Copyright 2023 Fonticons, Inc. --><path d="M144 128a48 48 0 1 0 0-96 48 48 0 1 0 0 96zm48 160V256h64c17.7 0 32-14.3 32-32s-14.3-32-32-32H189.3c-6.6-18.6-24.4-32-45.3-32c-26.5 0-48 21.5-48 48v80c0 35.3 28.7 64 64 64h85.6c8.1 0 14.9 6 15.9 14l10.7 86c2 16 15.6 28 31.8 28h48c17.7 0 32-14.3 32-32s-14.3-32-32-32H332.2L325 358.1c-5-40-39-70.1-79.4-70.1H192zM64 160c0-17.7-14.3-32-32-32s-32 14.3-32 32V320c0 70.7 57.3 128 128 128h64c17.7 0 32-14.3 32-32s-14.3-32-32-32H128c-35.3 0-64-28.7-64-64V160z"/></svg>
